icons/art/art_favorite_m_white.svg

<svg width="96" height="96" viewBox="0 0 96 96" xmlns="http://www.w3.org/2000/svg"><title>art_favorite_m_white</title><g fill="none" fill-rule="evenodd"><path d="M0 0h96v96H0z"/><path d="M92.847 36.727A2.462 2.462 0 0 0 90.47 35H61.659a2.493 2.493 0 0 1-2.378-1.728L50.378 5.87A2.462 2.462 0 0 0 48 4.142a2.462 2.462 0 0 0-2.378 1.728l-8.903 27.402A2.494 2.494 0 0 1 34.341 35H5.53a2.462 2.462 0 0 0-2.377 1.727 2.463 2.463 0 0 0 .908 2.795l23.308 16.933a2.492 2.492 0 0 1 .908 2.795l-8.902 27.401a2.464 2.464 0 0 0 .908 2.795 2.465 2.465 0 0 0 2.938 0L46.53 72.512a2.496 2.496 0 0 1 2.939 0l23.309 16.935c.446.325.958.486 1.47.486s1.023-.162 1.47-.486a2.462 2.462 0 0 0 .908-2.795L67.723 59.25a2.492 2.492 0 0 1 .908-2.795l23.308-16.933a2.463 2.463 0 0 0 .908-2.795zm-1.496 1.987L68.043 55.646a3.491 3.491 0 0 0-1.271 3.913l8.903 27.401c.248.764-.119 1.368-.545 1.677-.426.311-1.114.472-1.764 0L50.058 71.703a3.496 3.496 0 0 0-4.116 0L22.634 88.638c-.649.47-1.337.309-1.763 0-.427-.31-.793-.913-.545-1.678l8.902-27.401a3.489 3.489 0 0 0-1.271-3.913L4.649 38.714c-.65-.473-.708-1.177-.545-1.678C4.267 36.535 4.727 36 5.53 36h28.811a3.492 3.492 0 0 0 3.329-2.419l8.903-27.403c.248-.764.9-1.036 1.427-1.036s1.179.272 1.427 1.037l8.903 27.403A3.492 3.492 0 0 0 61.659 36H90.47c.803 0 1.264.535 1.426 1.036.163.501.105 1.205-.545 1.678z" fill="#FFF" fill-rule="nonzero"/><path d="M71 41H57.925a3.49 3.49 0 0 1-3.328-2.418l-4.936-15.191-2.854.927 4.936 15.191A6.483 6.483 0 0 0 57.925 44H71v-3z" fill="#FFF" fill-rule="nonzero" opacity=".3"/></g></svg>

<?xml version="1.0" encoding="UTF-8"?>
<svg width="96px" height="96px" viewBox="0 0 96 96" version="1.1" xmlns="http://www.w3.org/2000/svg" xmlns:xlink="http://www.w3.org/1999/xlink">
    <!-- Generator: Sketch 48.2 (47327) - http://www.bohemiancoding.com/sketch -->
    <title>art_favorite_m_white</title>
    <desc>Created with Sketch.</desc>
    <defs></defs>
    <g id="mobile" stroke="none" stroke-width="1" fill="none" fill-rule="evenodd" transform="translate(-1028.000000, -1359.000000)">
        <g id="Headings" transform="translate(64.000000, 77.000000)"></g>
        <g id="art_favorite__m__white" transform="translate(1028.000000, 1359.000000)">
            <g id="Group">
                <rect id="Rectangle-path" x="0" y="0" width="96" height="96"></rect>
                <path d="M92.847,36.727 C92.506,35.678 91.573,35 90.47,35 L61.659,35 C60.572,35 59.617,34.306 59.281,33.272 L50.378,5.87 C50.037,4.82 49.104,4.142 48,4.142 C46.896,4.142 45.963,4.82 45.622,5.87 L36.719,33.272 C36.383,34.306 35.427,35 34.341,35 L5.53,35 C4.426,35 3.494,35.678 3.153,36.727 C2.812,37.777 3.169,38.874 4.061,39.522 L27.369,56.455 C28.249,57.094 28.613,58.217 28.277,59.25 L19.375,86.651 C19.034,87.7 19.391,88.797 20.283,89.446 C21.177,90.094 22.33,90.093 23.221,89.446 L46.53,72.512 C47.408,71.874 48.59,71.874 49.469,72.512 L72.778,89.447 C73.224,89.772 73.736,89.933 74.248,89.933 C74.76,89.933 75.271,89.771 75.718,89.447 C76.611,88.799 76.967,87.701 76.626,86.652 L67.723,59.25 C67.387,58.216 67.752,57.093 68.631,56.455 L91.939,39.522 C92.831,38.874 93.188,37.776 92.847,36.727 L92.847,36.727 Z M91.351,38.714 L68.043,55.646 C66.813,56.54 66.302,58.112 66.772,59.559 L75.675,86.96 C75.923,87.724 75.556,88.328 75.13,88.637 C74.704,88.948 74.016,89.109 73.366,88.637 L50.058,71.703 C49.443,71.256 48.721,71.033 48,71.033 C47.279,71.033 46.558,71.256 45.942,71.703 L22.634,88.638 C21.985,89.108 21.297,88.947 20.871,88.638 C20.444,88.328 20.078,87.725 20.326,86.96 L29.228,59.559 C29.699,58.113 29.188,56.54 27.957,55.646 L4.649,38.714 C3.999,38.241 3.941,37.537 4.104,37.036 C4.267,36.535 4.727,36 5.53,36 L34.341,36 C35.862,36 37.199,35.028 37.67,33.581 L46.573,6.178 C46.821,5.414 47.473,5.142 48,5.142 C48.527,5.142 49.179,5.414 49.427,6.179 L58.33,33.582 C58.8,35.028 60.138,36 61.659,36 L90.47,36 C91.273,36 91.734,36.535 91.896,37.036 C92.059,37.537 92.001,38.241 91.351,38.714 L91.351,38.714 Z" id="Shape" fill="#FFFFFF"></path>
                <path d="M71,41 L57.925,41 C56.404,41 55.067,40.028 54.597,38.582 L49.661,23.391 L46.807,24.318 L51.743,39.509 C52.615,42.195 55.1,44 57.925,44 L71,44 L71,41 L71,41 Z" id="Shape" fill="#FFFFFF" opacity="0.3"></path>
            </g>
        </g>
    </g>
</svg>
